!!!COM:	Martini, Johannes
!!!CDT:	~1440///-~1497//
!!!OPR:	Missa Cucu
!!!ONM:	4
!!!OTL: Sanctus
!!!AGN:	Mass; Sanctus
!!!SCT:	Mar1003d
!!!SCA:	Mar1003d
!!!voices:	4
!!!voices-OPR:	4
**kern	**kern	**kern	**kern
*staff4	*staff3	*staff2	*staff1
*Ivox	*Ivox	*Ivox	*Ivox
*I"Bassus	*I"Tenor	*I"Altus	*I"Superius
*I'B	*I'T	*I'A	*I'S
*>[A,B,C,D,C]	*>[A,B,C,D,C]	*>[A,B,C,D,C]	*>[A,B,C,D,C]
*>A	*>A	*>A	*>A
*clefF4	*clefGv2	*clefGv2	*clefG2
*k[]	*k[]	*k[]	*k[]
*M3/1	*M3/1	*M3/1	*M3/1
*met(O)	*met(O)	*met(O)	*met(O)
!!section: Sanctus
!!!OMD: Sanctus
=1-	=1-	=1-	=1-
0D	0.r	0d	0a
1E	.	2B\	1g
.	.	2c\	.
=2	=2	=2	=2
1.D	0.r	1d	1.f
.	.	2D/	.
2C/	.	2E/	2e/
1BB-	.	2F/	1d
.	.	2G/	.
=3	=3	=3	=3
1AA	0.r	2A/	2c/
.	.	1c	1e
2C/	.	.	.
2D\	.	4B\	4d/
.	.	4A/	4c/
1E	.	1G#i	1B
=4	=4	=4	=4
2r	0.r	1A	1A
1AA	.	.	.
.	.	1c	2r
2AA/	.	.	2e/
2D\	.	2d\	2f/
2C/	.	2e\	2g/
=5	=5	=5	=5
2F\	0.r	2A/	2a/
1G	.	1d	2.b\
.	.	.	4a/
2A\	.	2c\	1a
1E	.	1B	.
.	.	.	2g#i/
=6	=6	=6	=6
1F	1r	0A	1a
0D	1r	.	2f/
.	.	.	2g/
.	1f	1F	1a
=7	=7	=7	=7
0G	0.d	1r	1g
.	.	0B-	2d/
.	.	.	2.g/
1GG	.	.	.
.	.	.	8f/L
.	.	.	8e/J
.	.	.	2d/
=8	=8	=8	=8
2.AA/	1r	1.A	2c/
.	.	.	2d/
4BB/	.	.	.
1C	1r	.	1e
.	.	2G/	.
[1D	1f	2F/	1A
.	.	2D/	.
=9	=9	=9	=9
2D\]	0d	4F/	1r
.	.	4G/	.
2C/	.	2A/	.
1BB-	.	4B-\	1r
.	.	2G/	.
.	.	4F/	.
1AA	1r	1A	[1A
=10	=10	=10	=10
1D	1f	1F	1A]
0GG	0d	0G	0B-
=11	=11	=11	=11
1.AA	1c	1.E	2.A/
.	.	.	4B/
.	1A	.	2c/
2D\	.	2F/	1d
2BB/	1r	2G/	.
2AA/	.	[2A/	2c/
=12	=12	=12	=12
2D\	1r	2A/]	2f/
2E\	.	1G	2g/
2C/	1r	.	1e
2.AA/	.	2A/	.
.	1c	1E	2r
4BB/	.	.	.
2C/	.	.	2e/
=13	=13	=13	=13
2D\	1A	2r	2d/
2AA/	.	1e	2.c/
2C/	1r	.	.
.	.	.	4B/
2D\	.	2d\	1A
1BB	1r	2.d\	.
.	.	.	2G#i/
.	.	4c\	.
=14	=14	=14	=14
2.AA/	1c	2e\	1A
.	.	2f\	.
4BB/	.	.	.
2C/	1A	2e\	1r
1D	.	1d	.
.	2r	.	[1a
[2F\	2A/	4c\	.
.	.	4B\	.
=15	=15	=15	=15
2F\]	2c\	2.A/	2a/]
2F\	2d\	.	4g/
.	.	4B\	4f/
1C	1e	2.c\	2g/
.	.	.	1cc
.	.	2A/	.
2r	2A/	.	.
.	.	4F/	.
2GG/	2B\	2G/	2b\
=16	=16	=16	=16
2AA/	2c\	4F/	2a/
.	.	4E/	.
2GG/	1d	2G/	2.b\
2G\	.	4r	.
.	.	4B\	4a/
2A\	2c\	4c\	1a
.	.	4d\	.
1E	1B	1e	.
.	.	.	2g#i/
=17	=17	=17	=17
0AA	1A	2e\	0a
.	.	2.c\	.
.	1r	.	.
.	.	4B\	.
.	.	4c\	.
.	.	4d\	.
1C	1r	1e	1g
=18	=18	=18	=18
1D	0A	1.d	1f
2D\	.	.	2.e/
2.C/	.	2e\	.
.	.	.	4f/
.	2.G/	2c\	1g
4BB/	.	.	.
2GG/	.	[2d\	.
.	4F/	.	.
=19	=19	=19	=19
2BB-/	2D/	2d\]	2f/
2C/	2G/	2.c\	2.e/
2AA/	2A/	.	.
.	.	4B\	4d/
2D\	2D/	1A	1d
1AA	1E	.	.
.	.	2A/	2c#i/
=20	=20	=20	=20
2r	1D	2.F/	0d
1D	.	.	.
.	.	4G/	.
.	1F	1A	.
2D\	.	.	.
1E	1G	2G/	1B
.	.	2E/	.
=21	=21	=21	=21
1AA	1A	2E/	1c
.	.	1A	.
1D	0F	.	2d/
.	.	2A/	1d
1BB-	.	1B-	.
.	.	.	4c/
.	.	.	4d/
=22	=22	=22	=22
2C/	1E	2G/	0e
2.AA/	.	1A	.
.	1r	.	.
4BB/	.	.	.
2C/	.	2G/	.
1D	1A	1F	1f
=23	=23	=23	=23
2C/	1.A	2r	2e/
2AA/	.	2.c\	2.e/
2.C/	.	.	.
.	.	4d\	4d/
.	1.G	1e	2c/
4D\	.	.	.
1E	.	.	1B
.	.	2e\	.
=24	=24	=24	=24
1AA	1c	1e	2A/
.	.	.	2.c/
2r	1A	1c	.
.	.	.	4d/
2AA/	.	.	2e/
2D\	2r	2d\	2f/
2C/	2c\	2e\	2e/
=25	=25	=25	=25
2D\	1A	2f\	2d/
2AA/	.	4e\	1a
.	.	2c\	.
1C	2r	.	.
.	.	4d\	.
.	2c\	2e\	2g/
1D	2A/	1d	1f
.	2r	.	.
=26	=26	=26	=26
2r	1c	2.A/	1.e
1AA	.	.	.
.	.	4G/	.
.	1A	2E/	.
2D\	.	2F/	2d/
2C/	2c\	2G/	2e/
2D\	2A/	2d\	2f/
=27	=27	=27	=27
2.E\	2r	2B\	2g/
.	2G/	2.c\	1e
4D\	.	.	.
4C/	2A/	.	.
4BB/	.	4d\	.
2AA/	2c\	2.e\	2.a/
1E	1B	.	.
.	.	4d\	4g#i/
.	.	2B\	4g#i/
.	.	.	4f#i/
=28	=28	=28	=28
1AA	0.A	2c\	1a
.	.	4r	.
.	.	4c\	.
1r	.	4d\	2f/
.	.	2f\	.
.	.	.	2d/
.	.	8e\L	.
.	.	8d\J	.
1AA	.	4c\	1e
.	.	4B\	.
.	.	2c\	.
=29	=29	=29	=29
1D	1F	1d	2d/
.	.	.	2f/
1C	0G	1r	2e/
.	.	.	2.g/
1BB	.	1D	.
.	.	.	8f/L
.	.	.	8e/J
.	.	.	2d/
=30	=30	=30	=30
1AA	0.A	1E	1c
0D	.	2F/	2d/
.	.	4D/	1f
.	.	2F/	.
.	.	4G/	.
.	.	4A/	4e/
.	.	4B\	4d/
=31	=31	=31	=31
*	*	*	*^
0.AA;l	0.A;l	0.A;l	0.al;/	0.el\
*	*	*	*v	*v
!!LO:LB:i:g=z
=32||	=32||	=32||	=32||
*>B	*>B	*>B	*>B
*clefF4	*clefGv2	*clefGv2	*clefG2
*k[]	*k[]	*k[]	*k[]
*M2/1	*M2/1	*M2/1	*M2/1
*met(C)	*met(C)	*met(C)	*met(C)
!!section: Pleni sunt celi
!!!OMD: Pleni sunt celi
0r	0r	1d	1.a
.	.	2c\	.
.	.	2B\	2g/
=33	=33	=33	=33
0r	0r	2.A/	1f
.	.	8G/L	.
.	.	8F/J	.
.	.	2E/	2g/
.	.	2D/	2f/
=34	=34	=34	=34
0r	0r	4r	2e/
.	.	2G/	.
.	.	.	4d/
.	.	4F/	4c/
.	.	2G/	2B/
.	.	2A/	2A/
=35	=35	=35	=35
0r	0r	2.G/	4r
.	.	.	2d/
.	.	4E/	4c/
.	.	2F/	2d/
.	.	2E/	2e/
=36	=36	=36	=36
0r	0r	2F/	2.d/
.	.	2G/	.
.	.	.	4B/
.	.	2A/	2c/
.	.	4r	2B/
.	.	4G/	.
=37	=37	=37	=37
0r	0r	4A/	2c/
.	.	4c\	.
.	.	2B-\	2d/
.	.	2c\	2e/
.	.	2d\	4r
.	.	.	4d/
=38	=38	=38	=38
0r	0r	2r	4e/
.	.	.	4g/
.	.	4r	2f/
.	.	4D/	.
.	.	4E/	2g/
.	.	4G/	.
.	.	2F/	2a/
=39	=39	=39	=39
0r	0r	2G/	2d/
.	.	2A/	4c/
.	.	.	2f/
.	.	2D/	.
.	.	.	8e/L
.	.	.	8d/J
.	.	4C/	4e/
.	.	[4F/	[4d/
=40	=40	=40	=40
0r	0r	4F/]	4d/]
.	.	8E/L	8c#i/L
.	.	8D/J	8B/J
.	.	2E/	2c#i/
.	.	1D	1d
=41	=41	=41	=41
0r	0r	2r	2c/
.	.	2D/	2d/
.	.	2.F/	2A/
.	.	.	[2c/
.	.	4E/	.
=42	=42	=42	=42
0r	0r	4F/	4c/]
.	.	4G/	4B/
.	.	2A/	4c/
.	.	.	4d/
.	.	4r	2e/
.	.	4c\	.
.	.	2d\	4r
.	.	.	4f/
=43	=43	=43	=43
0r	0r	2e\	2g/
.	.	2A/	2cc\
.	.	2d\	4b\
.	.	.	4a/
.	.	2c\	[2a/
=44	=44	=44	=44
0r	0r	1B	2a/]
.	.	.	2g/
.	.	1A	2a/
.	.	.	2f/
=45	=45	=45	=45
0r	0r	2.c\	2e/
.	.	.	1g
.	.	8B/L	.
.	.	8A/J	.
.	.	2G/	.
.	.	2A/	[2f/
=46	=46	=46	=46
0r	0r	2D/	2f/]
.	.	1.G	2e/
.	.	.	2.d/
.	.	.	8c/L
.	.	.	8B/J
=47	=47	=47	=47
0r	0r	2F/	2A/
.	.	2.E/	2r
.	.	.	2c/
.	.	8D/L	.
.	.	8C/J	.
.	.	2BB/	2d/
=48	=48	=48	=48
0r	0r	4r	2e/
.	.	2A/	.
.	.	.	2.f/
.	.	4D/	.
.	.	4F/	.
.	.	4G/	4e/
.	.	2A/	[2e/
=49	=49	=49	=49
0r	0r	1F	4e/]
.	.	.	4d/
.	.	.	4d/
.	.	.	4c/
.	.	2E/	2e/
.	.	2A/	2c/
=50	=50	=50	=50
0r	0r	2F/	2.d/
.	.	2.G/	.
.	.	.	4c/
.	.	.	4B/
.	.	4F/	4A/
.	.	2G/	2B/
=51	=51	=51	=51
0r	0r	2A/	2A/
.	.	2F/	2r
.	.	2.G/	2d/
.	.	.	[2e/
.	.	4F/	.
=52	=52	=52	=52
0r	0r	4E/	4e/]
.	.	4D/	4f/
.	.	2E/	2g/
.	.	2D/	2f/
.	.	2G/	4e/
.	.	.	4d/
=53	=53	=53	=53
0r	0r	2.A/	2c/
.	.	.	2f/
.	.	4B\	.
.	.	2c\	4e/
.	.	.	2a/
.	.	2F/	.
.	.	.	8g/L
.	.	.	8a/J
=54	=54	=54	=54
0r	0r	2r	4b-i\
.	.	.	2a/
.	.	2D/	.
.	.	.	8g/L
.	.	.	8f/J
.	.	2C/	2e/
.	.	[2F/	2d/
=55	=55	=55	=55
0r	0r	4F/]	4f/
.	.	4G/	2e/
.	.	2A/	.
.	.	.	4c/
.	.	4B-i\	4d/
.	.	2A/	4e/
.	.	.	2f/
.	.	8G/L	.
.	.	8F/J	.
=56	=56	=56	=56
0r	0r	2E/	2g/
.	.	2D/	4f/
.	.	.	2a/
.	.	4F/	.
.	.	2E/	4g/
.	.	.	2e/
.	.	4C/	.
=57	=57	=57	=57
0r	0r	4D/	4d/
.	.	4E/	2c/
.	.	2F/	.
.	.	.	4A/
.	.	2G/	2B/
.	.	4F/	2A/
.	.	[4A/	.
=58	=58	=58	=58
0r	0r	4A/]	2r
.	.	4G/	.
.	.	2E/	2g/
.	.	2r	2.a/
.	.	[2c\	.
.	.	.	8g/L
.	.	.	8f/J
=59	=59	=59	=59
0r	0r	4c\]	2g/
.	.	4B\	.
.	.	2c\	4a/
.	.	.	2cc\
.	.	2d\	.
.	.	.	4b\
.	.	4c\	[2a/
.	.	[4f\	.
=60	=60	=60	=60
0r	0r	4f\]	4a/]
.	.	4e\	4g/
.	.	4d\	4f/
.	.	8c\L	8e/L
.	.	8B\J	8d/J
.	.	2A/	4c/
.	.	.	2f/
.	.	2D/	.
.	.	.	4d/
=61	=61	=61	=61
0r	0r	2A/	4f/
.	.	.	4e/
.	.	2c\	2.a/
.	.	1B	.
.	.	.	4g#i/
.	.	.	4g#i/
.	.	.	4f#i/
=62	=62	=62	=62
0r	0r	0Al	0al
!!LO:LB:i:g=z
=63||	=63||	=63||	=63||
*>C	*>C	*>C	*>C
*clefF4	*clefGv2	*clefGv2	*clefG2
*k[]	*k[]	*k[]	*k[]
*M2/1	*M2/1	*M2/1	*M2/1
*met(C)	*met(C)	*met(C)	*met(C)
!!section: Osanna
!!!OMD: Osanna
0AA	0r	0A	0e
=64	=64	=64	=64
1D	0r	1A	1f
1C	.	[1c	1e
=65	=65	=65	=65
1.F	0r	2c\]	0a
.	.	2A/	.
.	.	2c\	.
2E\	.	2d\	.
=66	=66	=66	=66
1C	0r	1e	1g
1D	.	1d	1f
=67	=67	=67	=67
2E\	0c	1r	0e
1C	.	.	.
.	.	1G	.
4BB/	.	.	.
4C/	.	.	.
=68	=68	=68	=68
0D	0A	1F	1d
.	.	1D	1f
=69	=69	=69	=69
1C	0r	1E	2e/
.	.	.	2.c/
1AA	.	[1A	.
.	.	.	4d/
.	.	.	[2e/
=70	=70	=70	=70
1r	0c	2A/]	4e/]
.	.	.	4d/
.	.	2G/	4c/
.	.	.	4B/
[1AA	.	2A/	1A
.	.	2B\	.
=71	=71	=71	=71
1AA]	0A	1c	2r
.	.	.	2e/
1D	.	2d\	2f/
.	.	2f\	[2a/
=72	=72	=72	=72
1C	0r	1e	2a/]
.	.	.	2g/
1D	.	[1A	2f/
.	.	.	4e/
.	.	.	4d/
=73	=73	=73	=73
1.AA	0c	0A]	1e
.	.	.	1A
2BB/	.	.	.
=74	=74	=74	=74
1C	1c	[0G	1e
[1GG	[1B	.	[1d
=75	=75	=75	=75
1GG]	2B\]	1G]	1d]
.	2A/	.	.
1AA	[1A	1E	1c
=76	=76	=76	=76
0E	2A/]	1r	0B
.	4G#i/	.	.
.	4F#i/	.	.
.	1G#i	1E	.
=77	=77	=77	=77
0AA	[0A	2F/	1A
.	.	1E	.
.	.	.	1c
.	.	4D/	.
.	.	4E/	.
=78	=78	=78	=78
[0D	0A]	2F/	2.d/
.	.	2G/	.
.	.	.	4e/
.	.	2A/	4f/
.	.	.	4g/
.	.	4B\	[2a/
.	.	4c\	.
=79	=79	=79	=79
0D]	0F	2d\	4a/]
.	.	.	4g/
.	.	4c\	4f/
.	.	4B\	4e/
.	.	2A/	1f
.	.	2B\	.
=80	=80	=80	=80
[0C	0G	1.c	2.e/
.	.	.	4f/
.	.	.	2g/
.	.	4B\	[2g/
.	.	4A/	.
=81	=81	=81	=81
1C]	0E	1G	4g/]
.	.	.	4f/
.	.	.	4e/
.	.	.	4d/
1AA	.	1A	2.c#i/
.	.	.	4B/
=82	=82	=82	=82
0D	1D	2F/	2d/
.	.	1A	2A/
.	1F	.	2r
.	.	4G/	2d/
.	.	4F/	.
=83	=83	=83	=83
1C	1G	1E	2e/
.	.	.	1g
1r	[1A	1D	.
.	.	.	4f/
.	.	.	4e/
=84	=84	=84	=84
1D	1A]	1d	2f/
.	.	.	4e/
.	.	.	4f/
1E	1G	1B	2g/
.	.	.	[2e/
=85	=85	=85	=85
0AA	1A	2c\	2e/]
.	.	2d\	2f/
.	1c	[1e	2e/
.	.	.	[2a/
=86	=86	=86	=86
0E	0B	2e\]	2a/]
.	.	2c\	4g#i/
.	.	.	4f#i/
.	.	2d\	1g#i
.	.	2e\	.
=87	=87	=87	=87
2.AA/	0A	1.c	2.a/
4BB/	.	.	4g/
2C/	.	.	2e/
[2D\	.	2A/	[2f/
=88	=88	=88	=88
4D\]	0d	2F/	4f/]
4C/	.	.	4e/
4BB/	.	4E/	4d/
4AA/	.	4F/	4c/
2GG/	.	1G	1B
2FF/	.	.	.
=89	=89	=89	=89
1AA	0c	1.E	2r
.	.	.	2.A/
1C	.	.	.
.	.	.	4B/
.	.	[2G/	2c/
=90	=90	=90	=90
1GG	1B	1G]	1d
1AA	[1A	[1c	2c/
.	.	.	[2f/
=91	=91	=91	=91
1C	2A/]	2c\]	2f/]
.	2G/	2B\	2e/
1D	1F	2A/	[1d
.	.	2B\	.
=92	=92	=92	=92
0AA	0E	[0A	2d/]
.	.	.	4c#i/
.	.	.	4B/
.	.	.	1c#i
=93	=93	=93	=93
1r	[0D	0A]	0d
[1D	.	.	.
=94	=94	=94	=94
1D]	1D]	0d	0f
1D	[1A	.	.
=95	=95	=95	=95
1C	0A]	1r	1e
1AA	.	1c	1f
=96	=96	=96	=96
1GG	1B	1d	1g
[1AA	[1c	1A	[1e
=97	=97	=97	=97
2AA/]	2c\]	0e	2e/]
2BB/	2B\	.	2d/
2C/	1A	.	1c
2D\	.	.	.
=98	=98	=98	=98
0E	1.G#i	1r	0B
.	.	[1e	.
.	2F#i/	.	.
=99	=99	=99	=99
0AA	0A	2e\]	1A
.	.	2d\	.
.	.	2c\	2r
.	.	4B\	[2a/
.	.	4A/	.
=100	=100	=100	=100
1C	1r	1G	2a/]
.	.	.	2g/
1AA	1A	[1c	2e/
.	.	.	[2f/
=101	=101	=101	=101
0C	1G	1c]	4f/]
.	.	.	4e/
.	.	.	[1.e
.	1E	1c	.
=102	=102	=102	=102
1D	0F	1A	2e/]
.	.	.	4d/
.	.	.	4c/
1BB-	.	1B-	1d
=103	=103	=103	=103
1C	0E	1G	1e
[1AA	.	[1A	1c
=104	=104	=104	=104
0AA]	[0A	2A/]	1r
.	.	2B\	.
.	.	1c	1e
=105	=105	=105	=105
1D	1A]	1d	1f
1r	1B	1G	1g
=106	=106	=106	=106
1AA	1c	1A	1e
1D	1d	1F	1d
=107	=107	=107	=107
1.E	1B	1.G	2.g/
.	.	.	4a/
.	[1e	.	2b\
[2C/	.	4A/	[2cc\
.	.	4B\	.
=108	=108	=108	=108
1C]	1e]	1c	2cc\]
.	.	.	2a/
1G	1d	1B	4b\
.	.	.	4a/
.	.	.	4g/
.	.	.	4f/
=109	=109	=109	=109
1A	1c	1c	2e/
.	.	.	2.cc\
1F	1A	1d	.
.	.	.	4b\
.	.	.	[2a/
=110	=110	=110	=110
0E	0B	1e	2a/]
.	.	.	4g#i/
.	.	.	4f#i/
.	.	2r	1g#i
.	.	2e\	.
=111	=111	=111	=111
1AA	[0A	2c\	0a
.	.	1f	.
1D	.	.	.
.	.	4e\	.
.	.	4d\	.
=112	=112	=112	=112
1C	0A]	1e	1r
1D	.	1d	1a
=113	=113	=113	=113
1E	0r	1B	1g
2C/	.	2c\	2e/
[2D\	.	[2A/	[2f/
=114	=114	=114	=114
2D\]	0r	4A/]	2f/]
.	.	4F/	.
2E\	.	2G/	2e/
2F\	.	2A/	2.d/
4E\	.	4G/	.
4D\	.	4F/	4c/
=115	=115	=115	=115
1C	1c	1G	1e
[1D	1A	[1F	2.d/
.	.	.	4c/
=116	=116	=116	=116
2D\]	1r	2F/]	1A
2C/	.	4E/	.
.	.	4D/	.
1AA	1c	[1E	2r
.	.	.	[2e/
=117	=117	=117	=117
2r	1A	2E/]	4e/]
.	.	.	4d/
2AA/	.	2A/	2c/
1E	1r	2.G#i/	1B
.	.	4F#i/	.
=118	=118	=118	=118
2.AA/	1c	2A/	1A
.	.	4G/	.
4BB/	.	4F/	.
2C/	2c\	2E/	1r
2D\	[2B\	2D/	.
=119	=119	=119	=119
2E\	4B\]	2r	0r
.	4A/	.	.
2C/	2.A/	2c\	.
1BB	.	2.d\	.
.	8G#i/L	.	.
.	8F#i/J	.	.
.	2G#i/	.	.
.	.	4e\	.
=120	=120	=120	=120
2.AA/	0A	2f\	0r
.	.	1e	.
4BB/	.	.	.
2C/	.	.	.
[2D\	.	[2d\	.
=121	=121	=121	=121
2D\]	1F	4d\]	0r
.	.	4c\	.
2D\	.	2A/	.
1GG	1G	2B\	.
.	.	[2G/	.
=122	=122	=122	=122
1C	1E	2G/]	0r
.	.	4F/	.
.	.	4E/	.
1D	2D/	1F	.
.	2F/	.	.
=123	=123	=123	=123
2E\	2G/	2r	0r
2C/	1A	2E/	.
2D\	.	2F/	.
2BB/	2G/	2D/	.
=124	=124	=124	=124
1AA	2A/	2E/	0r
.	2c\	2F/	.
2r	1B	1G	.
2GG/	.	.	.
=125	=125	=125	=125
2AA/	1A	2E/	0r
2C/	.	2.A/	.
1BB	1d	.	.
.	.	4F/	.
.	.	2G/	.
=126	=126	=126	=126
1AA	1c	2.A/	0r
.	.	4F/	.
2r	2B\	2G/	.
2AA/	[2A/	2A/	.
=127	=127	=127	=127
1D	4A/]	2D/	0r
.	4G/	.	.
.	2F/	1d	.
1AA	1E	.	.
.	.	2c#i\	.
=128	=128	=128	=128
2r	1.D	1d	0r
1D	.	.	.
.	.	2B\	.
2C/	[2A/	2A/	.
=129	=129	=129	=129
2AA/	1A]	2.c\	1r
2C/	.	.	.
.	.	4B\	.
2BB/	2B\	2G/	2r
[2AA/	[2c\	2A/	[2A/
=130	=130	=130	=130
4AA/]	4c\]	1E	4A/]
4GG/	4B\	.	4B/
2AA/	2A/	.	2c/
1BB	2.G/	1D	1d
.	4F/	.	.
=131	=131	=131	=131
1.AA	1A	1E	2c/
.	.	.	2d/
.	2r	2c\	2e/
2D\	2A/	2d\	[2f/
=132	=132	=132	=132
2E\	2G/	2B\	4f/]
.	.	.	4e/
2C/	2E/	2c\	1e
1D	1F	1A	.
.	.	.	2d/
=133	=133	=133	=133
1AA	1E	2A/	1e
.	.	1c	.
2r	[1A	.	2f/
2D\	.	[2d\	[2a/
=134	=134	=134	=134
2F\	2A/]	1d]	2a/]
2G\	2B\	.	2g/
2A\	2c\	2c\	2e/
2D\	2d\	2A/	2f/
=135	=135	=135	=135
2E\	2B\	1G	2g/
1C	1e	.	4a/
.	.	.	4b\
.	.	2A/	2cc\
2G\	2d\	2B\	[2b\
=136	=136	=136	=136
2A\	2c\	2c\	4b\]
.	.	.	4a/
2F\	2A/	2d\	1a
1E	1B	1e	.
.	.	.	2g#i/
=137	=137	=137	=137
0AAl	0Al	0Al	0al
!!LO:LB:i:g=z
!!LO:TX:rj:i:Y=30:t=fine
=138||	=138||	=138||	=138||
*>D	*>D	*>D	*>D
*clefF4	*clefGv2	*clefGv2	*clefG2
*k[]	*k[]	*k[]	*k[]
*M2/1	*M2/1	*M2/1	*M2/1
*met(C)	*met(C)	*met(C)	*met(C)
!!section: Benedictus
!!!OMD: Benedictus
0r	0r	0r	[0a
=139	=139	=139	=139
0r	0r	0r	0a]
=140	=140	=140	=140
0r	0r	0r	1g
.	.	.	[1f
=141	=141	=141	=141
[0A	0r	0r	2f/]
.	.	.	4e/
.	.	.	4d/
.	.	.	1e
=142	=142	=142	=142
0A]	0r	0r	1A
.	.	.	1r
=143	=143	=143	=143
1G	0r	0r	0d
[1F	.	.	.
=144	=144	=144	=144
2F\]	0r	0r	1f
4E\	.	.	.
4D\	.	.	.
1E	.	.	1g
=145	=145	=145	=145
1AA	0r	0r	0a
1r	.	.	.
=146	=146	=146	=146
0D	0r	0r	1f
.	.	.	2e/
.	.	.	[2d/
=147	=147	=147	=147
1F	0r	0r	2d/]
.	.	.	2c/
1G	.	.	1B
=148	=148	=148	=148
0A	0r	0r	2A/
.	.	.	2r
.	.	.	2f/
.	.	.	2e/
=149	=149	=149	=149
1F	0r	0r	2d/
.	.	.	4c/
.	.	.	4B/
2E\	.	.	2c/
[2D\	.	.	[2B/
=150	=150	=150	=150
2D\]	0r	0r	4B/]
.	.	.	4A/
2C/	.	.	1A
1BB	.	.	.
.	.	.	2G#i/
=151	=151	=151	=151
1AA	0r	0r	1A
[1D	.	.	1r
=152	=152	=152	=152
2D\]	0r	0r	1f
4C/	.	.	.
4BB/	.	.	.
1C	.	.	1e
=153	=153	=153	=153
1r	0r	0r	2f/
.	.	.	1a
1F	.	.	.
.	.	.	4g/
.	.	.	4f/
=154	=154	=154	=154
1E	0r	0r	1g
2F\	.	.	1a
[2A\	.	.	.
=155	=155	=155	=155
2A\]	0r	0r	1f
4G\	.	.	.
4F\	.	.	.
1G	.	.	[1e
=156	=156	=156	=156
1A	0r	0r	2e/]
.	.	.	2d/
1F	.	.	[1d
=157	=157	=157	=157
0E	0r	0r	2d/]
.	.	.	4c#i/
.	.	.	4B/
.	.	.	1c#i
=158	=158	=158	=158
0D	0r	1r	0d
.	.	1A	.
=159	=159	=159	=159
1C	0r	1.A	1e
1D	.	.	1f
.	.	4G/	.
.	.	4F/	.
=160	=160	=160	=160
1BB	0r	1G	1d
1AA	.	[1A	2c/
.	.	.	[2e/
=161	=161	=161	=161
0E	0r	2A/]	2e/]
.	.	4G/	4d/
.	.	4F/	4c/
.	.	1G	1B
=162	=162	=162	=162
0AA	0r	2A/	1r
.	.	1c	.
.	.	.	1a
.	.	4B\	.
.	.	4A/	.
=163	=163	=163	=163
1E	0r	1B	1g
2r	.	2A/	1cc
2A\	.	2c\	.
=164	=164	=164	=164
2G\	0r	2d\	1b
2E\	.	2e\	.
2F\	.	2c\	[1a
2D\	.	[2f\	.
=165	=165	=165	=165
1F	0r	2f\]	2a/]
.	.	4e\	4g/
.	.	4d\	4f/
1C	.	1e	2.g/
.	.	.	4f/
=166	=166	=166	=166
1D	0r	1d	2f/
.	.	.	2.a/
1AA	.	1c	.
.	.	.	4g/
.	.	.	2a/
=167	=167	=167	=167
1r	0r	0B	2b\
.	.	.	2.g#i/
1E	.	.	.
.	.	.	4f#i/
.	.	.	2g#i/
=168	=168	=168	=168
2AA/	0r	0A	[0al
1D	.	.	.
4C/	.	.	.
4BB/	.	.	.
=169	=169	=169	=169
2C/	0r	1r	0a]
1D	.	.	.
.	.	1A	.
2C/	.	.	.
=170	=170	=170	=170
1AA	1E	1c	0r
1D	1F	1d	.
=171	=171	=171	=171
1C	2G/	1.e	0r
.	1A	.	.
1AA	.	.	.
.	2A/	2c\	.
=172	=172	=172	=172
1BB-	1F	1d	0r
1C	1E	2c\	.
.	.	[2A/	.
=173	=173	=173	=173
1D	1F	2A/]	0r
.	.	1d	.
1GG	1G	.	.
.	.	4c\	.
.	.	4B\	.
=174	=174	=174	=174
1AA	1E	1c	0r
1D	2D/	1f	.
.	[2A/	.	.
=175	=175	=175	=175
1E	2A/]	1.e	0r
.	2G/	.	.
2AA/	2A/	.	.
[2BB-/	2D/	[2d\	.
=176	=176	=176	=176
2BB-/]	2F/	1d]	0r
2GG/	2G/	.	.
1AA	1E	2.c\	.
.	.	4B\	.
=177	=177	=177	=177
1BB	1D	1d	0r
1AA	2r	2c\	.
.	2c\	[2A/	.
=178	=178	=178	=178
1D	2d\	4A/]	0r
.	.	4G/	.
.	2f\	2A/	.
2GG/	2g\	2B\	.
2AA/	[2e\	[2c\	.
=179	=179	=179	=179
2C/	2e\]	2c\]	0r
2D\	4d\	4B\	.
.	4c\	4A/	.
1E	1B	1G#i	.
=180	=180	=180	=180
2AA/	1A	1A	0r
1D	.	.	.
.	1d	2r	.
4C/	.	2D/	.
4BB/	.	.	.
=181	=181	=181	=181
1AA	1c	2E/	0r
.	.	2F/	.
1GG	[1B	1G	.
=182	=182	=182	=182
1C	2B\]	1E	0r
.	2A/	.	.
1D	[1A	1F	.
=183	=183	=183	=183
0BB	2A/]	1.D	0r
.	4G#i/	.	.
.	4F#i/	.	.
.	1G#i	.	.
.	.	4C/	.
.	.	4D/	.
=184	=184	=184	=184
1AA	1A	1E	0r
1BB-	2F/	1D	.
.	[2B-\	.	.
=185	=185	=185	=185
1GG	2B-\]	2r	0r
.	2B-i\	2d\	.
1AA	1A	2c\	.
.	.	[2e\	.
=186	=186	=186	=186
1C	1G	2e\]	0r
.	.	2c\	.
1D	1F	2A/	.
.	.	2d\	.
=187	=187	=187	=187
0AA	0E	4e\	0r
.	.	4d\	.
.	.	4c#i\	.
.	.	4B\	.
.	.	1c#	.
=188	=188	=188	=188
2r	1D	1d	0r
1A	.	.	.
.	1r	2c\	.
4G\	.	2A/	.
4F\	.	.	.
=189	=189	=189	=189
1G	1d	1B	0r
1A	2c\	2A/	.
.	2A/	2c\	.
=190	=190	=190	=190
2r	1B	2.d\	0r
1D	.	.	.
.	.	4e\	.
.	1A	2f\	.
4C/	.	[2e\	.
4BB/	.	.	.
=191	=191	=191	=191
1AA	2r	2e\]	0r
.	2c\	2e\	.
2r	2.d\	2d\	.
[2D\	.	4c\	.
.	4e\	4B\	.
=192	=192	=192	=192
2D\]	2f\	1A	0r
1.C	1e	.	.
.	.	1G	.
.	2e\	.	.
=193	=193	=193	=193
2GG/	2d\	2B\	0r
4AA/	4c\	1A	.
4BB/	4B\	.	.
2C/	1A	.	.
[2D\	.	4G/	.
.	.	4F/	.
=194	=194	=194	=194
2D\]	1G	1E	0r
2C/	.	.	.
1D	2B\	1D	.
.	[2A/	.	.
=195	=195	=195	=195
2C/	2A/]	2r	0r
2D\	4G/	2d\	.
.	4F/	.	.
1AA	1E	2e\	.
.	.	2c\	.
=196	=196	=196	=196
2r	1D	1.f	0r
1D	.	.	.
.	2r	.	.
2D\	2d\	4e\	.
.	.	4d\	.
=197	=197	=197	=197
1A	2e\	1c	0r
.	2c\	.	.
1D	[1f	2r	.
.	.	2F/	.
=198	=198	=198	=198
1BB	2f\]	1G	0r
.	4e\	.	.
.	4d\	.	.
[1AA	1c	2.A/	.
.	.	4B\	.
=199	=199	=199	=199
2AA/]	2r	2c\	0r
2BB-/	2F/	1d	.
1GG	1G	.	.
.	.	4c\	.
.	.	4B\	.
=200	=200	=200	=200
2.FF/	2.A/	2c\	0r
.	.	1A	.
4GG/	4B\	.	.
2AA/	2c\	.	.
[2BB-/	[2d\	2F/	.
=201	=201	=201	=201
2BB-/]	1d]	1G	0r
2BB-i/	.	.	.
2AA/	2c\	1A	.
[2C/	[2A/	.	.
=202	=202	=202	=202
2C/]	2A/]	1r	0r
2D\	2F/	.	.
1BB-i	1G	1d	.
=203	=203	=203	=203
2AA/	1A	2c\	0r
2C/	.	1e	.
1D	1F	.	.
.	.	2d\	.
=204	=204	=204	=204
0AA	0E	2c\	0r
.	.	2B\	.
.	.	2.c\	.
.	.	4B\	.
=205	=205	=205	=205
1r	1D	1d	0r
1C	1G	1e	.
=206	=206	=206	=206
1D	2F/	1f	0r
.	2.A/	.	.
1AA	.	2e\	.
.	4G/	.	.
.	2E/	[2c\	.
=207	=207	=207	=207
1r	1A	2c\]	0r
.	.	2.f\	.
1C	2G/	.	.
.	.	4e\	.
.	2E/	[2e\	.
=208	=208	=208	=208
1D	1F	2e\]	0r
.	.	2d\	.
1AA	1E	[1e	.
=209	=209	=209	=209
1r	1A	2e\]	0r
.	.	1c	.
1C	2G/	.	.
.	2E/	[2A/	.
=210	=210	=210	=210
1D	1F	2A/]	0r
.	.	2B\	.
1AA	1E	2c\	.
.	.	4B\	.
.	.	4c\	.
=211	=211	=211	=211
0BB	1.D	4d\	0r
.	.	4c\	.
.	.	4B\	.
.	.	4A/	.
.	.	2.G#i/	.
.	2C/	.	.
.	.	4F#i/	.
=212	=212	=212	=212
0AAl	0El	0Al	0r
!!LO:TX:i:Y=40:rj:t=Osanna ut supra
=||	=||	=||	=||
*-	*-	*-	*-
!!!RDF**kern: l=long note in original notation
!!!RDF**kern: i=editorial accidental
!!!ENC:	Chris Gage 11-21-2013
!!!END:	2015/03/05/
!!!EED:	Jesse Rodin
!!!EEV:	2015/03/09/
!!!ONB:	Translated from MusicXML and edited on 2015/03/09/ by Craig Sapp
!!muse2ps: C^@{COM}^i2I150v105,105,105,150Q16
